src/components/icon/img/activate.svg

<svg viewBox="0 0 50 50" xmlns="http://www.w3.org/2000/svg"><path d="m33.72 20.86a1.44 1.44 0 0 1 0 2.37l-5.79 5.77-19.84 19.87a1.72 1.72 0 0 1 -1.24.52 1.38 1.38 0 0 1 -1.14-.52l-4.65-4.65a1.51 1.51 0 0 1 0-2.28l19.84-19.94 5.9-5.79a1.52 1.52 0 0 1 2.27 0zm-8.16 5.89-2.28-2.38-18.71 18.71 2.28 2.38zm-13.56-16.33-4.85-4h6.2l2.17-6 2.17 6h6.1l-4.86 4 2.07 6.58-5.47-4.1-5.69 4.1zm32.05-4h6.1l-4.86 4 2.08 6.58-5.48-4.1-5.58 4.1 2.17-6.61-4.86-4h6.1l2.17-6zm6.1 23.16-4.86 4 2.07 6.62-5.48-4.14-5.58 4.14 2.17-6.62-4.86-4h6.1l2.17-6 2.17 6z" fill="#1873b4"/></svg>

<svg id="Ebene_1" data-name="Ebene 1" xmlns="http://www.w3.org/2000/svg" viewBox="0 0 50 50"><defs><style>.cls-1{fill:#1873b4;}</style></defs><title>activate_50x50px</title><path class="cls-1" d="M33.72,20.86a1.44,1.44,0,0,1,0,2.37L27.93,29,8.09,48.87a1.72,1.72,0,0,1-1.24.52,1.38,1.38,0,0,1-1.14-.52L1.06,44.22a1.51,1.51,0,0,1,0-2.28L20.9,22l5.9-5.79a1.52,1.52,0,0,1,2.27,0Zm-8.16,5.89-2.28-2.38L4.57,43.08l2.28,2.38ZM12,10.42l-4.85-4h6.2l2.17-6,2.17,6h6.1l-4.86,4L21,17,15.53,12.9,9.84,17Zm32.05-4h6.1l-4.86,4L47.37,17,41.89,12.9,36.31,17l2.17-6.61-4.86-4h6.1l2.17-6Zm6.1,23.16-4.86,4,2.07,6.62-5.48-4.14-5.58,4.14,2.17-6.62-4.86-4h6.1l2.17-6,2.17,6Z"/></svg>
